assets/Fork and knife with plate/Flat/fork_and_knife_with_plate_flat.svg

<svg width="32" height="32" viewBox="0 0 32 32" fill="none" xmlns="http://www.w3.org/2000/svg">
<path d="M16.5 28C22.8513 28 28 22.8513 28 16.5C28 10.1487 22.8513 5 16.5 5C10.1487 5 5 10.1487 5 16.5C5 22.8513 10.1487 28 16.5 28Z" fill="#CDC4D6"/>
<path d="M16.5 24.5C20.9183 24.5 24.5 20.9183 24.5 16.5C24.5 12.0817 20.9183 8.5 16.5 8.5C12.0817 8.5 8.5 12.0817 8.5 16.5C8.5 20.9183 12.0817 24.5 16.5 24.5Z" fill="#E1D8EC"/>
<path d="M6.81999 6.31005C6.43999 6.31005 6.14 6.62004 6.14 6.99004V9.68004C6.14 9.88004 5.97999 10.03 5.78999 10.03C5.58999 10.03 5.44 9.87004 5.44 9.68004V7.02004C5.44 6.65004 5.15 6.32005 4.78 6.31005C4.39 6.30005 4.06999 6.61004 4.06999 6.99004V9.68004C4.06999 9.88004 3.91 10.03 3.72 10.03C3.52 10.03 3.37 9.87004 3.37 9.68004V7.02004C3.37 6.65004 3.07999 6.32005 2.70999 6.31005C2.31999 6.30005 2 6.61004 2 6.99004V11.57C2 12.4725 2.43726 13.2765 3.1088 13.7789C3.70999 14.118 3.70999 15.67 3.70999 15.67V25.69C3.70999 26.21 4.12999 26.63 4.64999 26.63H4.87999C5.39999 26.63 5.81999 26.21 5.81999 25.69V15.67C5.81999 15.67 5.81999 14.1786 6.42119 13.7789C7.09273 13.2765 7.53 12.4725 7.53 11.57V6.99004C7.51 6.62004 7.19999 6.31005 6.81999 6.31005Z" fill="#998EA4"/>
<path d="M28.36 6.31006C29.26 6.31006 29.99 7.04003 29.99 7.94003L29.9899 25.7001C29.9899 26.2201 29.5699 26.6401 29.0499 26.6401H28.8199C28.2999 26.6401 27.8799 26.2201 27.8799 25.7001V17.0831C26.7556 16.5747 26.03 15.453 26.03 14.2V8.65005C26.02 7.36005 27.06 6.31006 28.36 6.31006Z" fill="#998EA4"/>
</svg>

<svg xmlns="http://www.w3.org/2000/svg" width="32" height="32" fill="none"><path fill="#CDC4D6" d="M16.5 28C22.851 28 28 22.851 28 16.5S22.851 5 16.5 5 5 10.149 5 16.5 10.149 28 16.5 28Z"/><path fill="#E1D8EC" d="M16.5 24.5a8 8 0 1 0 0-16 8 8 0 0 0 0 16Z"/><path fill="#998EA4" d="M6.82 6.31a.68.68 0 0 0-.68.68v2.69c0 .2-.16.35-.35.35-.2 0-.35-.16-.35-.35V7.02c0-.37-.29-.7-.66-.71-.39-.01-.71.3-.71.68v2.69c0 .2-.16.35-.35.35-.2 0-.35-.16-.35-.35V7.02c0-.37-.29-.7-.66-.71-.39-.01-.71.3-.71.68v4.58c0 .902.437 1.707 1.109 2.209.601.339.601 1.891.601 1.891v10.02c0 .52.42.94.94.94h.23c.52 0 .94-.42.94-.94V15.67s0-1.491.601-1.891A2.757 2.757 0 0 0 7.53 11.57V6.99a.72.72 0 0 0-.71-.68ZM28.36 6.31c.9 0 1.63.73 1.63 1.63V25.7c0 .52-.42.94-.94.94h-.23c-.52 0-.94-.42-.94-.94v-8.617a3.154 3.154 0 0 1-1.85-2.883V8.65a2.322 2.322 0 0 1 2.33-2.34Z"/></svg>
